X:5641
T:Roscommon Reel
O:england
R:Reel
M:C|
S:Breathnach vol 1
K:EDor
EFGA BAGA|AF ~F2 dFAF|EFGA BAGB|(3AGF dF FE E2|\
EFGA BAGB|AF ~F2 dFAF|EFGA BAGB|AFdD FE E2||\
eB B2 efge|fa ~a2 bgaf|eB ~B2 efge|fagf efgf|\
eB ~B2 efge|fa ~a2 b2 ag|fagf egfe|dBAF EFGA||\
~B2 BA B2 dB|AD ~D2 AD ~D2|~B2 BA B2 dB|AFdD FE E2|\
EBBA B2 dB|AD ~D2 AD ~D2|dBBA B2 dB|AFdD FEED||


